!!!COM: Haydn, Franz Joseph
!!!OTL: String Quartet in E Major
!!!OPS: Opus 54
!!!ONM: No. 3
!!!OMD: Finale: Presto
!!!OMV: 4
!!!SCT: H III:59
!!!SCA: Thematisch-bibliographisches Werkevererzeichnis (A. van Hoboken)
!!!YOR: Trautwein Edition
!!!ENC: Frances Bennion
!!!CDT: 1732/3/31/-1809/5/31/
!!!CNT: Oesterreich
!!!YEC: Copyright (c) 1994, 2000 Center for Computer Assisted Research in the Humanities
!!!YEM: Rights to all derivative editions reserved.
!!!YEM: Refer to licensing agreement for further details.
!!!YEN: United States of America
**kern	**kern	**kern	**kern
*k[f#c#g#d#]	*k[f#c#g#d#]	*k[f#c#g#d#]	*k[f#c#g#d#]
*E:	*E:	*E:	*E:
*clefF4	*clefC3	*clefG	*clefG
*M2/4	*M2/4	*M2/4	*M2/4
[2E	4B	4g#	2r
.	4c#	8a	.
.	.	16g#	.
.	.	16a	.
=2	=2	=2	=2
2E_	[2A	8f#	2r
.	.	8cc#	.
.	.	8cc#	.
.	.	8cc#	.
=3	=3	=3	=3
2E_	4A]	4f#	2r
.	4B	8g#	.
.	.	16f#	.
.	.	16g#	.
=4	=4	=4	=4
2E]	2G#	8e	2r
.	.	8b	.
.	.	8b	.
.	.	8b	.
=5	=5	=5	=5
8G#	[2E	4B	2r
8E	.	.	.
8A	.	8c#	.
8E	.	16B	.
.	.	16c#	.
=6	=6	=6	=6
8G#	8E]	8B	2r
8G#	8B	8e	.
8F#	8B	8d#	.
8A	8B	8f#	.
=7	=7	=7	=7
8G#	8.B	8.e	2r
8E	.	.	.
.	32d#	32f#	.
.	32e	32g#	.
8D#	8f#	8a	.
8E	8e	8g#	.
=8	=8	=8	=8
4BB	4d#	8f#	2r
.	.	8f#	.
4r	4r	8f#	.
.	.	8f##	.
=9	=9	=9	=9
[2E	4B	4g#	2r
.	8c#	8a	.
.	16B	16g#	.
.	16c#	16a	.
=10	=10	=10	=10
2E_	2A	8f#	8r
.	.	8cc#	16ccc#
.	.	.	16bb
.	.	8cc#	16aa
.	.	.	16gg#
.	.	8cc#	16ff#
.	.	.	16ee
=11	=11	=11	=11
2E_	4A	4f#	4dd#
.	8B	8g#	4r
.	16A	16f#	.
.	16B	16g#	.
=12	=12	=12	=12
2E_	2G#	8e	8r
.	.	8b	16ee
.	.	.	16ff#
.	.	8b	16gg#
.	.	.	16aa
.	.	8b	16bb
.	.	.	16ccc#
=13	=13	=13	=13
2E]	8g#	4b	4bb
.	8e	.	.
.	8a	8cc#	8ccc#
.	8e	16b	16bb
.	.	16cc#	16ccc#
=14	=14	=14	=14
8E	8g#	8b	8bb
8GG#	8e	8ee	8eee
8AA	8e	8cc#	8ccc#
8C#	8e	8a	8aa
=15	=15	=15	=15
4BB	4e	8g#	8gg#
.	.	8b	8bb
4BB	4d#	8f#	8ff#
.	.	8b	8bb
=16	=16	=16	=16
4E	8e	8e	[2ee
.	8e	8g#	.
4r	8f#	8a	.
.	8g#	8b	.
=17	=17	=17	=17
2r	8a	8cc#	2ee_
.	8cc#	8ee	.
.	8f#	8a	.
.	8a	8cc#	.
=18	=18	=18	=18
8r	8g#	8b	8ee]
8G#	8b	8ee	8ee
8F#	8a	8dd#	8ff#
8E	8g#	8ee	8gg#
=19	=19	=19	=19
4D#	4.f#	8ff#	8aa
.	.	8aa	8ccc#
4B	.	8dd#	8ff#
.	8d#	8ff#	8aa
=20	=20	=20	=20
8E	8e	8ee	8gg#
4.r	8e	8g#	8ee
.	8f#	8a	8ee
.	8g#	8b	8ee
=21	=21	=21	=21
2r	8a	8cc#	[2ee
.	8cc#	8ee	.
.	8f#	8a	.
.	8a	8cc#	.
=22	=22	=22	=22
8r	8g#	8b	8ee]
8GG#	8b	8ee	8ee
8FF#	8a	8dd#	8ff#
8EE	8g#	8ee	8gg#
=23	=23	=23	=23
4DD#	4.f#	8ff#	8aa
.	.	8aa	8ccc#
4BB	.	8dd#	8ff#
.	8d#	8ff#	8aa
=24	=24	=24	=24
4EE	4e	8ee	8gg#
.	.	8ee	8gg#
4r	4r	8ff#	8aa
.	.	8gg#	8bb
=25	=25	=25	=25
2r	2r	8aa	8ccc#
.	.	8ccc#	8eee
.	.	8ff#	8aa
.	.	8aa	8ccc#
=26	=26	=26	=26
4E	8r	8gg#	[2bb
.	8d#	8ff#	.
4r	8e	8gg#	.
.	8f#	8aa	.
=27	=27	=27	=27
2r	8e	8gg#	2bb_
.	8g#	8bb	.
.	8c#	8ee	.
.	8e	8gg#	.
=28	=28	=28	=28
2r	8d#	8ff#	2bb_
.	8f#	8bb	.
.	8B	8dd#	.
.	8d#	8ff#	.
=29	=29	=29	=29
8r	4.c#	4.ee	8bb]
8F#	.	.	8aa#
8G#	.	.	8ccc#
8A#	8f#	8cc#	8ee
=30	=30	=30	=30
2B	[2f#	[2b	8dd#
.	.	.	8b
.	.	.	8dd#
.	.	.	8ff#
=31	=31	=31	=31
2D#	2f#]	2b_	8aa#
.	.	.	8ccc#
.	.	.	8bb
.	.	.	8aa
=32	=32	=32	=32
[2E	[2g#	2b]	8ff##
.	.	.	8gg#
.	.	.	8dd#
.	.	.	8ee
=33	=33	=33	=33
4E]	4g#]	2g#	8b#
.	.	.	8cc#
4E#	4c#	.	8g#
.	.	.	8b
=34	=34	=34	=34
4F#	4c#	8f#	8a#
.	.	8g#	8b
4r	8r	8a#	8cc#
.	8f#	8a#	8cc#
=35	=35	=35	=35
2r	8d#	4b	4dd#
.	8f#	.	.
.	8c#	8cc#	8ee
.	8f#	16b	16dd#
.	.	16cc#	16ee
=36	=36	=36	=36
4.r	4B	4dd#	8ff#
.	.	.	8bb
.	4r	8r	8bb
8F#	.	8a#	8cc#
=37	=37	=37	=37
8D#	2r	4b	4dd#
8F#	.	.	.
8C#	.	8cc#	8ee
8F#	.	16b	16dd#
.	.	16cc#	16ee
=38	=38	=38	=38
4BB	4.r	4dd#	8ff#
.	.	.	8bb
4r	.	8r	8bb
.	8b	8dd#	8ff#
=39	=39	=39	=39
2r	8g#	4ee	4gg#
.	8b	.	.
.	8f#	8ff#	8aa
.	8b	16ee	16gg#
.	.	16ff#	16aa
=40	=40	=40	=40
4.r	4e	2gg#	8bb
.	.	.	8eee
.	8r	.	8eee
8c#	8e	.	8eee
=41	=41	=41	=41
8A#	8cc#	2ff#	4eee
8F#	8a#	.	.
8B	8f#	.	4ddd#
8BB	8b	.	.
=42	=42	=42	=42
4.E	[2cc#	2gg#	8ccc#
.	.	.	8ccc#
.	.	.	8ddd#
8E#	.	.	8bb
=43	=43	=43	=43
8F#	8cc#]	8cc#	8aa#
8FF#	8f#	8f#	8ff#
8F#	8f#	8f#	8ff#
8F#	8f#	8f#	8ff#
=44	=44	=44	=44
8E#	8e#	8e#	8ee#
8F#	8f#	8f#	8ff#
8E	8e	8e	8ee
8C#	8c#	8c#	8cc#
=45	=45	=45	=45
4BB	4d#	4f#	4b
4r	4e	4g#	8cc#
.	.	.	16b
.	.	.	16cc#
=46	=46	=46	=46
2r	4d#	4f#	8b
.	.	.	8ff#
.	4r	4r	8ff#
.	.	.	8ff#
=47	=47	=47	=47
4d#	[2f#	4b	4b
4e	.	4a#	8cc#
.	.	.	16b
.	.	.	16cc#
=48	=48	=48	=48
4d#	4f#]	4b	8b
.	.	.	8ff#
4r	4r	4r	8ff#
.	.	.	8ff#
=49	=49	=49	=49
4D#	8d#	8f#	8b
.	16dd#	16ff#	8aa
.	16cc#	16ee	.
4r	16b	16dd#	8aa
.	16a	16cc#	.
.	16g#	16b	8aa
.	16f#	16a	.
=50	=50	=50	=50
4E	8e	8g#	8b
.	8E	8b	8gg#
4r	8e	8b	8gg#
.	8e	8b	8gg#
=51	=51	=51	=51
4E	16f#	16a#	8cc#
.	16g#	16b	.
.	16a#	16cc#	8aa#
.	16b	16dd#	.
4r	16cc#	16ee	8aa#
.	16b	16dd#	.
.	16cc#	16ee	8aa#
.	16a#	16cc#	.
=52	=52	=52	=52
8D#	4b	8b	16b
.	.	.	16bb
8BB	.	8f#	16bb
.	.	.	16bb
8AA#	8r	8f#	16cc#
.	.	.	16ccc#
8A#	8a#	8f#	16ccc#
.	.	.	16ccc#
=53	=53	=53	=53
8BB	8b	[2f#	16dd#
.	.	.	16ddd#
8B	8b	.	16ddd#
.	.	.	16ddd#
8C#	8a#	.	16ee
.	.	.	16eee
8c#	8a#	.	16eee
.	.	.	16eee
=54	=54	=54	=54
4D#	4b	4f#]	16ff#
.	.	.	16fff#
.	.	.	16fff#
.	.	.	16fff#
4r	8r	8r	16fff#
.	.	.	16ddd#
.	8d#	8b	16bb
.	.	.	16ff#
=55	=55	=55	=55
2r	8f#	8dd#	16dd#
.	.	.	16ff#
.	8d#	8b	16ff#
.	.	.	16ff#
.	8f#	8dd#	16b
.	.	.	16dd#
.	8d#	8b	16dd#
.	.	.	16dd#
=56	=56	=56	=56
4.F#	[2c#	[2a#	16cc#
.	.	.	16eee
.	.	.	16eee
.	.	.	16eee
.	.	.	16eee
.	.	.	16ddd#
8FF#	.	.	16ccc#
.	.	.	16bb
=57	=57	=57	=57
8F#	2c#]	2a#]	16aa#
.	.	.	16bb
8FF#	.	.	16ccc#
.	.	.	16bb
8F#	.	.	16aa#
.	.	.	16gg#
8FF#	.	.	16ff#
.	.	.	16ee
=58	=58	=58	=58
4BB	4d#	4b	16dd#
.	.	.	16fff#
.	.	.	16fff#
.	.	.	16fff#
4r	8r	8r	16fff#
.	.	.	16ddd#
.	8d#	8b	16bb
.	.	.	16ff#
=59	=59	=59	=59
2r	8f#	8dd#	16dd#
.	.	.	16ff#
.	8d#	8b	16ff#
.	.	.	16ff#
.	8f#	8dd#	16b
.	.	.	16dd#
.	8d#	8b	16dd#
.	.	.	16dd#
=60	=60	=60	=60
4.F#	[2c#	[2a#	16cc#
.	.	.	16eee
.	.	.	16eee
.	.	.	16eee
.	.	.	16eee
.	.	.	16ddd#
8FF#	.	.	16ccc#
.	.	.	16bb
=61	=61	=61	=61
8F#	2c#]	2a#]	16aa#
.	.	.	16bb
8FF#	.	.	16ccc#
.	.	.	16bb
8F#	.	.	16aa#
.	.	.	16gg#
8FF#	.	.	16ff#
.	.	.	16ee
=62	=62	=62	=62
4BB	4d#	4b	16dd#
.	.	.	16ff#
.	.	.	16ff#
.	.	.	16ff#
4r	8r	8r	16ff#
.	.	.	16bb
.	8B	8dd#	16bb
.	.	.	16bb
=63	=63	=63	=63
2BB	8d#	8ff#	16bb
.	.	.	16b
.	8B	8dd#	16bb
.	.	.	16b
.	8d#	8ff#	16aa
.	.	.	16b
.	8B	8dd#	16aa
.	.	.	16b
=64	=64	=64	=64
4E	4E	4ee	8aa
.	.	.	8ff##
4r	4r	8r	8gg#
.	.	8a#	8aa#
=65	=65	=65	=65
2r	2r	8b	8bb
.	.	8b#	8bb#
.	.	8cc#	8ccc#
.	.	8dd#	8ddd#
=66	=66	=66	=66
2r	2r	8ee	8eee
.	.	8ff#	8fff#
.	.	8gg#	8ggg#
.	.	8aa#	8aaa#
=67	=67	=67	=67
4.r	4.r	8bb	8bbb
.	.	8ccc#	8cccc#
.	.	8ddd#	8dddd#
8EE#	8E#	8e#	8e#
=68	=68	=68	=68
[2FF#	8F#	8f#	8f#
.	4b	4dd#	16ee#
.	.	.	16ff#
.	.	.	16ee#
.	.	.	16ff#
.	[8b	[8dd#	16ee#
.	.	.	16ff#
=69	=69	=69	=69
4.FF#]	8b]	8dd#]	16bb
.	.	.	16aa#
.	4b	4dd#	16gg#
.	.	.	16ff#
.	.	.	16ee
.	.	.	16dd#
8FF#	8B	8dd#	16cc#
.	.	.	16b
=70	=70	=70	=70
8F#	8A#	8ee	[2cc#
8FF#	8e	8a#	.
8r	8e	8a#	.
8FF#	8e	8a#	.
=71	=71	=71	=71
8F#	8A#	8ee	4.cc#]
8FF#	8e	8a#	.
8F#	8e	8a#	.
8FF#	8e	8a#	16b
.	.	.	16cc#
=72	=72	=72	=72
4BB	4d#	4f#	[2b
4r	8e	8g#	.
.	16d#	16f#	.
.	16e	16g#	.
=73	=73	=73	=73
2r	8c#	[2e	2b]
.	8g#	.	.
.	8g#	.	.
.	8g#	.	.
=74	=74	=74	=74
2r	2F#	8e]	16a#
.	.	.	16b
.	.	8A#	16cc#
.	.	.	16dd#
.	.	8A#	16ee
.	.	.	16cc#
.	.	8A#	16ee
.	.	.	16cc#
=75	=75	=75	=75
2r	4B	4B	16b
.	.	.	16cc#
.	.	.	16dd#
.	.	.	16ee
.	4r	4r	16ff#
.	.	.	16dd#
.	.	.	16ff#
.	.	.	16dd#
=76	=76	=76	=76
4D#	2r	4f#	[2b
8E	.	8g#	.
16D#	.	16f#	.
16E	.	16g#	.
=77	=77	=77	=77
8C#	[2C#	[2e	2b]
8G#	.	.	.
8G#	.	.	.
8G#	.	.	.
=78	=78	=78	=78
2FF#	4C#]	8e]	16a#
.	.	.	16b
.	.	8A#	16cc#
.	.	.	16dd#
.	4c#	8A#	16ee
.	.	.	16cc#
.	.	8A#	16ee
.	.	.	16cc#
=79	=79	=79	=79
2BB	4d#	8B	16b
.	.	.	16cc#
.	.	16B	16dd#
.	.	16c#	16ee
.	4r	8d#	16ff#
.	.	.	16dd#
.	.	8d#	16ff#
.	.	.	16dd#
=80	=80	=80	=80
2FF#	2c#	8e	16a#
.	.	.	16b
.	.	8A#	16cc#
.	.	.	16dd#
.	.	8A#	16ee
.	.	.	16cc#
.	.	8A#	16ee
.	.	.	16cc#
=81	=81	=81	=81
8BB	8d#	8B	8b
8r	8r	8r	8r
8BB	8f#	8dd#	8bb
8r	8r	8r	8r
=82	=82	=82	=82
4BB	4d#	8B	4B
.	.	4.r	.
4r	4r	.	4r
=83	=83	=83	=83
[2GG#	4B#	4g#	2r
.	4c#	8a	.
.	.	16g#	.
.	.	16a	.
=84	=84	=84	=84
2GG#_	8d#	8f#	8r
.	8f#	8dd#	16aa
.	.	.	16gg#
.	8f#	8dd#	16ff#
.	.	.	16ee
.	8f#	8dd#	16dd#
.	.	.	16cc#
=85	=85	=85	=85
2GG#_	4d#	4f#	4b#
.	8e	8g#	4r
.	16d#	16f#	.
.	16e	16g#	.
=86	=86	=86	=86
2GG#_	8c#	8e	8r
.	8e	8cc#	16gg#
.	.	.	16ff#
.	8e	8cc#	16ee
.	.	.	16dd#
.	8e	8cc#	16cc#
.	.	.	16b#
=87	=87	=87	=87
2GG#_	4c#	4e	4cc#
.	8d#	8f#	4r
.	16c#	16e	.
.	16d#	16f#	.
=88	=88	=88	=88
2GG#_	8B#	8d#	8r
.	8d#	8f#	16b#
.	.	.	16cc#
.	8B#	8f#	16dd#
.	.	.	16ee
.	8B#	8d#	16ff#
.	.	.	16dd#
=89	=89	=89	=89
2GG#_	8c#	8e	8cc#
.	8e	8g#	16cc#
.	.	.	16dd#
.	8c#	8g#	16ee
.	.	.	16ff#
.	8c#	8e	16gg#
.	.	.	16ee
=90	=90	=90	=90
2GG#_	8B#	8g#	8dd#
.	16G#	16B#	8gg#
.	16A#	16c#	.
.	16B#	16d#	8gg#
.	16c#	16e	.
.	16d#	16f#	8gg#
.	16B#	16d#	.
=91	=91	=91	=91
2GG#_	8c#	8c#	8gg#
.	16c#	16c#	8gg#
.	16B#	16d#	.
.	16c#	16e	8gg#
.	16d#	16f#	.
.	16e	16g#	8gg#
.	16c#	16e	.
=92	=92	=92	=92
4GG#]	4B#	4d#	[2gg#
8r	8r	8r	.
8GG#	8c#	8e	.
=93	=93	=93	=93
8GG#	8B#	8d#	2gg#_
8GG#	8c#	8e	.
8GG#	8B#	8d#	.
8GG#	8c#	8e	.
=94	=94	=94	=94
2GG#	2B#	2d#	2gg#]
=95	=95	=95	=95
[2EE	4B	2r	4gg#
.	4c#	.	8aa
.	.	.	16gg#
.	.	.	16aa
=96	=96	=96	=96
2EE_	2A	8r	8ff#
.	.	16cc#	8ccc#
.	.	16b	.
.	.	16a	8ccc#
.	.	16g#	.
.	.	16f#	8ccc#
.	.	16e	.
=97	=97	=97	=97
2EE_	4A	4d#	4ff#
.	8B	4r	8gg#
.	16A	.	16ff#
.	16B	.	16gg#
=98	=98	=98	=98
4EE]	2G#	8r	8ee
.	.	16e	8bb
.	.	16f#	.
4r	.	16g#	8bb
.	.	16a	.
.	.	16b	8bb
.	.	16cc#	.
=99	=99	=99	=99
2r	8g#	4b	4b
.	8e	.	.
.	8a	4r	8cc#
.	8e	.	16b
.	.	.	16cc#
=100	=100	=100	=100
2r	4g#	2r	8b
.	.	.	8ee
.	4r	.	8ee
.	.	.	8ee
=101	=101	=101	=101
8c#	8e#	8g#	8b
8C#	8g#	8b	8ee#
8C#	8g#	8b	8ee#
8C#	8g#	8b	8ee#
=102	=102	=102	=102
8F#	8f#	8f#	8a
8FF#	8c#	8a	8ff#
8FF#	8c#	8a	8ff#
8FF#	8c#	8a	8ff#
=103	=103	=103	=103
2r	2r	8a	4cc#
.	.	8f#	.
.	.	8b	8dd
.	.	8f#	16cc#
.	.	.	16dd
=104	=104	=104	=104
2r	2r	4a	8cc#
.	.	.	8ff#
.	.	4r	8ff#
.	.	.	8ff#
=105	=105	=105	=105
8d#	8f##	8a#	8cc#
8D#	8a#	8cc#	8ff##
8D#	8a#	8cc#	8ff##
8D#	8a#	8cc#	8ff##
=106	=106	=106	=106
8G#	8g#	8b	8b
8GG#	8B	8dd#	8gg#
8GG#	8B	8dd#	8gg#
8GG#	8B	8dd#	8gg#
=107	=107	=107	=107
8B	8B	8dd#	8dd#
8BB	8g#	8bb	8ddd#
8BB	8g#	8bb	8ddd#
8BB	8g#	8bb	8ddd#
=108	=108	=108	=108
8F##	8a#	8dd#	8dd#
8FF##	8d#	8aa#	8ccc#
8FF##	8d#	8aa#	8ccc#
8FF##	8d#	8aa#	8ccc#
=109	=109	=109	=109
8G#	8g#	8dd#	8dd#
8GG#	8d#	8gg#	8bb
8GG#	8d#	8gg#	8bb
8GG#	8d#	8gg#	8bb
=110	=110	=110	=110
[2D#	2d#	4ff##	8aa#
.	.	.	8ff##
.	.	4r	8dd#
.	.	.	8dd#
=111	=111	=111	=111
2D#_	4B	2r	4dd#
.	8c#	.	8ee
.	16B	.	16dd#
.	16c#	.	16ee
=112	=112	=112	=112
2D#_	2A#	8r	8cc#
.	.	16f##	8eee
.	.	16g#	.
.	.	16a#	8eee
.	.	16b	.
.	.	16cc#	8eee
.	.	16a#	.
=113	=113	=113	=113
2D#_	4A#	4f##	4cc#
.	8B	4r	8dd#
.	16A#	.	16cc#
.	16B	.	16dd#
=114	=114	=114	=114
2D#_	2G#	8r	8b
.	.	16g#	8ddd#
.	.	16a#	.
.	.	16b	8ddd#
.	.	16cc#	.
.	.	16dd#	8ddd#
.	.	16b	.
=115	=115	=115	=115
2D#_	4G#	4g#	4b
.	8A#	4r	8cc#
.	16G#	.	16b
.	16A#	.	16cc#
=116	=116	=116	=116
2D#]	2F##	8r	8a#
.	.	8cc#	8ccc#
.	.	8cc#	8ccc#
.	.	8cc#	8ccc#
=117	=117	=117	=117
2F##	[2d#	8r	8r
.	.	8a#	8aa#
.	.	8a#	8aa#
.	.	8a#	8aa#
=118	=118	=118	=118
2G#	2d#_	8r	8r
.	.	8b	8bb
.	.	8b	8bb
.	.	8b	8bb
=119	=119	=119	=119
2F#	2d#]	8r	8r
.	.	8a	8aa
.	.	8a	8aa
.	.	8a	8aa
=120	=120	=120	=120
2E	2e	8r	8r
.	.	8g#	8gg#
.	.	8g#	8gg#
.	.	8g#	8gg#
=121	=121	=121	=121
2D#	2B#	8r	8r
.	.	8f#	8ff#
.	.	8f#	8ff#
.	.	8f#	8ff#
=122	=122	=122	=122
2C#	2c#	8r	8r
.	.	8e	8ee
.	.	8e	8ee
.	.	8e	8ee
=123	=123	=123	=123
2AA	4.d#	8r	8r
.	.	8f##	8cc#
.	.	8f##	8cc#
.	8c#	8f##	8cc#
=124	=124	=124	=124
8GG#	8G#	8g#	8b#
8G#	8g#	8g#	8g#
8G#	8g#	8g#	8g#
8G#	8g#	8g#	8g#
=125	=125	=125	=125
8G#	8g#	8g#	8g#
8A	8a	8a	8a
8F#	8f#	8f#	8f#
8D#	8d#	8d#	8d#
=126	=126	=126	=126
4C#	4e	4g#	[2cc#
4r	8f#	8a	.
.	16e	16g#	.
.	16f#	16a	.
=127	=127	=127	=127
8r	2d#	2f#	8cc#]
16A	.	.	8b#
16G#	.	.	.
16F#	.	.	8b#
16E	.	.	.
16D#	.	.	8b#
16C#	.	.	.
=128	=128	=128	=128
4BB#	4G#	4f#	4dd#
4r	4r	8g#	8ee
.	.	16f#	16dd#
.	.	16g#	16ee
=129	=129	=129	=129
2r	8r	2e	8dd#
.	16c#	.	8cc#
.	16d#	.	.
.	16e	.	8cc#
.	16f#	.	.
.	16g#	.	8cc#
.	16a	.	.
=130	=130	=130	=130
8r	4B	2d#	8cc#
16BB	.	.	8b
16C#	.	.	.
16D#	4r	.	8b
16E	.	.	.
16F#	.	.	8b
16G#	.	.	.
=131	=131	=131	=131
4AA	8r	2c#	8b
.	16A	.	8a
.	16B	.	.
4r	16c#	.	8a
.	16d#	.	.
.	16e	.	8a
.	16f#	.	.
=132	=132	=132	=132
8r	4G#	2B	8a
16GG#	.	.	8g#
16AA	.	.	.
16BB	4r	.	8g#
16C#	.	.	.
16D#	.	.	8g#
16E	.	.	.
=133	=133	=133	=133
4AA	2r	2c#	8g#
.	.	.	8f#
4AA#	.	.	8f#
.	.	.	8e
=134	=134	=134	=134
4BB	2r	4B	4d#
4r	.	8c#	8e
.	.	16B	16d#
.	.	16c#	16e
=135	=135	=135	=135
4BB	4D#	4d#	4f#
8C	8E	4r	4r
16BB	16D#	.	.
16C	16E	.	.
=136	=136	=136	=136
4BB	4D#	4d#	4f#
4r	4r	8e	8g#
.	.	16d#	16f#
.	.	16e	16g#
=137	=137	=137	=137
4BB	4D#	4f#	4a
8C	8E	4r	4r
16BB	16D#	.	.
16C	16E	.	.
=138	=138	=138	=138
4BB	4D#	4f#	4dd#
4r	4r	8g#	8ee
.	.	16f#	16dd#
.	.	16g#	16ee
=139	=139	=139	=139
4BB	4D#	4a	4ff#
8C	8E	4r	4r
16BB	16D#	.	.
16C	16E	.	.
=140	=140	=140	=140
4BB	4D#	4dd#	4ff#
4r	4r	8ee	8gg#
.	.	16dd#	16ff#
.	.	16ee	16gg#
=141	=141	=141	=141
4BB	4d#	4ff#	[2aa
8C	8e	4ee	.
16BB	16d#	.	.
16C	16e	.	.
=142	=142	=142	=142
8AA	8f#	8ff#	8aa]
8c	8a	8f#	8dd#
8c	8a	8f#	8dd#
8c	8a	8f#	8dd#
=143	=143	=143	=143
8AA	8d#	8ff#	8ccc
8f#	8cc	8a	8dd#
8f#	8cc	8a	8dd#
8f#	8cc	8a	8dd#
=144	=144	=144	=144
8GG#	8e	8ee	8bb
8g#	8g#	8b	8ee
8g#	8g#	8b	8ee
8g#	8g#	8b	8ee
=145	=145	=145	=145
8GG#	8e#	8bb	8ddd
8g#	8dd	8b	8ee#
8g#	8dd	8b	8ee#
8g#	8dd	8b	8ee#
=146	=146	=146	=146
8AA	8f#	8aa	8ccc#
8f#	8a	8cc#	8ff#
8f#	8a	8cc#	8ff#
8f#	8a	8cc#	8ff#
=147	=147	=147	=147
2r	2r	2r	2r
=148	=148	=148	=148
2r	2r	2r	2r
=149	=149	=149	=149
[2f#	4a	4cc#	4ff#
.	4b	4dd	8gg#
.	.	.	16ff#
.	.	.	16gg#
=150	=150	=150	=150
2f#]	4a	4cc#	8ff#
.	.	.	8ccc#
.	4r	4r	8ccc#
.	.	.	8ccc#
=151	=151	=151	=151
2r	2r	2r	2r
=152	=152	=152	=152
2r	2r	2r	2r
=153	=153	=153	=153
2f#	4a	4cc#	4ff#
.	4b	4dd	8gg
.	.	.	16ff#
.	.	.	16gg
=154	=154	=154	=154
2g	[2b	[2dd	8ee
.	.	.	8bb
.	.	.	8bb
.	.	.	8bb
=155	=155	=155	=155
2g#	2b]	2dd]	8ee
.	.	.	8ddd
.	.	.	8ddd
.	.	.	8ddd
=156	=156	=156	=156
[2a	2a	2cc#	8ee
.	.	.	8ccc#
.	.	.	8ccc#
.	.	.	8ccc#
=157	=157	=157	=157
2a]	[2b	2dd#	8ff#
.	.	.	8ddd#
.	.	.	8ddd#
.	.	.	8ddd#
=158	=158	=158	=158
2g#	2b]	[2ee	8ee
.	.	.	8eee
.	.	.	8eee
.	.	.	8eee
=159	=159	=159	=159
2c#	2a#	2ee]	8ff#
.	.	.	8aa#
.	.	.	8aa#
.	.	.	8aa#
=160	=160	=160	=160
2B	2b	2dd#	8dd#
.	.	.	8bb
.	.	.	8bb
.	.	.	8bb
=161	=161	=161	=161
[2BB	2g#	2ee#	4bb
.	.	.	8ccc#
.	.	.	16bb
.	.	.	16ccc#
=162	=162	=162	=162
2BB_	8a	8ff#	8aa
.	16cc#	16aa	8fff#
.	16b	16gg#	.
.	16a	16ff#	8fff#
.	16b	16gg#	.
.	16a	16ff#	8fff#
.	16g#	16ee	.
=163	=163	=163	=163
2BB_	2f#	2dd#	4aa
.	.	.	8bb
.	.	.	16aa
.	.	.	16bb
=164	=164	=164	=164
4BB]	4g#	4ee	8gg#
.	.	.	8eee
4r	4r	4r	8eee
.	.	.	8eee
=165	=165	=165	=165
4G#	4B	4e	2r
4A	4c#	8f#	.
.	.	16e	.
.	.	16f#	.
=166	=166	=166	=166
4G#	4B	8e	2r
.	.	8b	.
4r	4r	8b	.
.	.	8b	.
=167	=167	=167	=167
4G#	[2B	4e	4e
4A	.	4d#	8f#
.	.	.	16e
.	.	.	16f#
=168	=168	=168	=168
4G#	4B]	4e	8e
.	.	.	8b
4r	4r	4r	8b
.	.	.	8b
=169	=169	=169	=169
4GG#	8G#	8B	8e
.	16g#	16b	8dd
.	16f#	16a	.
4r	16e	16g#	8dd
.	16d	16f#	.
.	16c#	16e	8dd
.	16B	16d	.
=170	=170	=170	=170
4AA	8A	8c#	8e
.	8A	8e	8cc#
4r	8A	8e	8cc#
.	8A	8e	8cc#
=171	=171	=171	=171
4AA	16B	16d#	8f#
.	16c#	16e	.
.	16d#	16f#	8dd#
.	16e	16g#	.
4r	16f#	16a	8dd#
.	16e	16g#	.
.	16f#	16a	8dd#
.	16d#	16f#	.
=172	=172	=172	=172
8GG#	4e	8e	16e
.	.	.	16ee
8EE	.	8b	16ee
.	.	.	16ee
8DD#	8r	8b	16f#
.	.	.	16ff#
8D#	8d#	8b	16ff#
.	.	.	16ff#
=173	=173	=173	=173
8EE	8e	[2b	16g#
.	.	.	16gg#
8E	8e	.	16gg#
.	.	.	16gg#
8FF#	8d#	.	16a
.	.	.	16aa
8F#	8d#	.	16aa
.	.	.	16aa
=174	=174	=174	=174
4GG#	4e	4b]	16b
.	.	.	16bb
.	.	.	16bb
.	.	.	16bb
4r	8r	8r	16bb
.	.	.	16gg#
.	8G#	8e	16ee
.	.	.	16b
=175	=175	=175	=175
2r	8B	8g#	16g#
.	.	.	16b
.	8G#	8e	16b
.	.	.	16b
.	8B	8g#	16e
.	.	.	16g#
.	8G#	8e	16g#
.	.	.	16g#
=176	=176	=176	=176
4.B	[2F#	[2d#	16f#
.	.	.	16aa
.	.	.	16aa
.	.	.	16aa
.	.	.	16aa
.	.	.	16gg#
8BB	.	.	16ff#
.	.	.	16ee
=177	=177	=177	=177
8B	2F#]	2d#]	16dd#
.	.	.	16ee
8BB	.	.	16ff#
.	.	.	16ee
8B	.	.	16dd#
.	.	.	16cc#
8BB	.	.	16b
.	.	.	16a
=178	=178	=178	=178
4E	4G#	4e	16g#
.	.	.	16bb
.	.	.	16bb
.	.	.	16bb
4r	8r	8r	16bb
.	.	.	16gg#
.	8G#	8e	16ee
.	.	.	16b
=179	=179	=179	=179
2r	8B	8g#	16g#
.	.	.	16b
.	8G#	8e	16b
.	.	.	16b
.	8B	8g#	16e
.	.	.	16g#
.	8G#	8e	16g#
.	.	.	16g#
=180	=180	=180	=180
4.B	[2F#	[2d#	16f#
.	.	.	16aa
.	.	.	16aa
.	.	.	16aa
.	.	.	16aa
.	.	.	16gg#
8BB	.	.	16ff#
.	.	.	16ee
=181	=181	=181	=181
8B	2F#]	2d#]	16dd#
.	.	.	16ee
8BB	.	.	16ff#
.	.	.	16ee
8B	.	.	16dd#
.	.	.	16cc#
8BB	.	.	16b
.	.	.	16a
=182	=182	=182	=182
4E	4E	4e	16g#
.	.	.	16bb
.	.	.	16bb
.	.	.	16bb
8r	8r	8r	16bb
.	.	.	16gg#
8G#	8e	8b	16ee
.	.	.	16b
=183	=183	=183	=183
4A	4e	4cc#	16a
.	.	.	16ccc#
.	.	.	16ccc#
.	.	.	16ccc#
8r	8r	8r	16ccc#
.	.	.	16aa
8A#	8f#	8cc#	16ff#
.	.	.	16ee
=184	=184	=184	=184
4B	4f#	4dd#	16dd#
.	.	.	16fff#
.	.	.	16fff#
.	.	.	16fff#
8r	8r	8r	16fff#
.	.	.	16ddd#
8D#	8b	8ff#	16bb
.	.	.	16aa
=185	=185	=185	=185
4E	4b	4gg#	16gg#
.	.	.	16bbb
.	.	.	16bbb
.	.	.	16bbb
8r	8r	8r	16bbb
.	.	.	16ggg#
8GG#	8e	8bb	16eee
.	.	.	16bb
=186	=186	=186	=186
4AA	4e	4ee	16ccc#
.	.	.	16eee
.	.	.	16ccc#
.	.	.	16eee
4r	4r	4r	16aa
.	.	.	16ccc#
.	.	.	16aa
.	.	.	16ccc#
=187	=187	=187	=187
2r	2r	2r	16ff#
.	.	.	16aa
.	.	.	16ff#
.	.	.	16aa
.	.	.	16dd#
.	.	.	16ff#
.	.	.	16dd#
.	.	.	16ff#
=188	=188	=188	=188
[2BB	[2f#	[2a [2d#	16a
.	.	.	16dd#
.	.	.	16ff#
.	.	.	16dd#
.	.	.	16aa
.	.	.	16dd#
.	.	.	16ff#
.	.	.	16dd#
=189	=189	=189	=189
2BB_	2f#_	2a_ 2d#_	16a
.	.	.	16dd#
.	.	.	16ff#
.	.	.	16dd#
.	.	.	16aa
.	.	.	16dd#
.	.	.	16ff#
.	.	.	16dd#
=190	=190	=190	=190
2BB_	2f#_	2a_ 2d#_	8a
.	.	.	8b
.	.	.	8dd#
.	.	.	8ff#
=191	=191	=191	=191
2BB_	2f#_	2a_ 2d#_	8aa
.	.	.	8bb
.	.	.	8ccc#
.	.	.	8bb
=192	=192	=192	=192
4BB]	4f#]	4a] 4d#]	4aa
4BB	4f#	4dd#	4aa
=193	=193	=193	=193
4BB	4f#	4dd#	4aa
4BB	4f#	4dd#	4aa
=194	=194	=194	=194
2BB	2f#	2dd#	2aa
=195	=195	=195	=195
2r	4G	4B	4e
.	4A	4c	8f#
.	.	.	16e
.	.	.	16f#
=196	=196	=196	=196
2r	4G	4B	8e
.	.	.	8b
.	4r	4r	8b
.	.	.	8b
=197	=197	=197	=197
2r	2r	2r	2r
=198	=198	=198	=198
2r	2A	2c	8f
.	.	.	8cc
.	.	.	8cc
.	.	.	8cc
=199	=199	=199	=199
2r	2B	2d	8g#
.	.	.	8dd
.	.	.	8dd
.	.	.	8dd
=200	=200	=200	=200
2r	2c	[2e	8a
.	.	.	8ee
.	.	.	8ee
.	.	.	8ee
=201	=201	=201	=201
8CC	8B#	8e]	8a#
8C	8G	8a#	8ee
8C	8G	8a#	8ee
8C	8G	8a#	8ee
=202	=202	=202	=202
[2BB	[2G#	8b	16b
.	.	.	16ee
.	.	4e	16ee
.	.	.	16ee
.	.	.	16ee
.	.	.	16gg#
.	.	[8e	16gg#
.	.	.	16gg#
=203	=203	=203	=203
2BB]	2G#]	8e]	16gg#
.	.	.	16bb
.	.	4e	16bb
.	.	.	16bb
.	.	.	16bb
.	.	.	16eee
.	.	8e	16eee
.	.	.	16eee
=204	=204	=204	=204
8BB	8E	8gg#	16eee
.	.	.	16ddd#
8BB	8e	8gg#	16eee
.	.	.	16ddd#
8BB	8e	8gg#	16eee
.	.	.	16ddd#
8BB	8e	8gg#	16eee
.	.	.	16ddd#
=205	=205	=205	=205
4.BB	2e	2gg#	16eee
.	.	.	16ddd#
.	.	.	16ccc#
.	.	.	16bb
.	.	.	16aa
.	.	.	16gg#
8BB	.	.	16ff#
.	.	.	16ee
=206	=206	=206	=206
8B	8d#	8aa	[2ff#
8BB	8a	8dd#	.
8r	8a	8dd#	.
8BB	8a	8dd#	.
=207	=207	=207	=207
8B	8d#	8aa	4.ff#]
8BB	8a	8dd#	.
8B	8a	8dd#	.
8BB	8a	8dd#	16ee
.	.	.	16ff#
=208	=208	=208	=208
4E	4g#	4b	[2ee
4r	8a	8cc#	.
.	16g#	16b	.
.	16a	16cc#	.
=209	=209	=209	=209
2r	8f#	[2a	2ee]
.	8cc#	.	.
.	8cc#	.	.
.	8cc#	.	.
=210	=210	=210	=210
2r	2B	8a]	16dd#
.	.	.	16ee
.	.	8d#	16ff#
.	.	.	16gg#
.	.	8d#	16aa
.	.	.	16ff#
.	.	8d#	16aa
.	.	.	16ff#
=211	=211	=211	=211
2r	4e	4e	16ee
.	.	.	16ff#
.	.	.	16gg#
.	.	.	16aa
.	4r	4r	16bb
.	.	.	16gg#
.	.	.	16bb
.	.	.	16gg#
=212	=212	=212	=212
4G#	2r	4b	[2ee
8A	.	8cc#	.
16G#	.	16b	.
16A	.	16cc#	.
=213	=213	=213	=213
8F#	[2F#	[2a	2ee]
8c#	.	.	.
8c#	.	.	.
8c#	.	.	.
=214	=214	=214	=214
2BB	4F#]	8a]	16dd#
.	.	.	16ee
.	.	8d#	16ff#
.	.	.	16gg#
.	4f#	8d#	16aa
.	.	.	16ff#
.	.	8d#	16aa
.	.	.	16ff#
=215	=215	=215	=215
2E	4g#	8e	16ee
.	.	.	16ff#
.	.	16e	16gg#
.	.	16f#	16aa
.	4r	8g#	16bb
.	.	.	16gg#
.	.	8g#	16bb
.	.	.	16gg#
=216	=216	=216	=216
2BB	2f#	8a	16dd#
.	.	.	16ee
.	.	8d#	16ff#
.	.	.	16gg#
.	.	8d#	16aa
.	.	.	16ff#
.	.	8d#	16aa
.	.	.	16ff#
=217	=217	=217	=217
4E	4g#	4e	4ee
4EE	4e	4ee 4e 4b	4e 4gg# 4b
=218	=218	=218	=218
4EE	4E	4ee 4b 4e	4ee 4b 4e
4r	4r	4r	4r
==	==	==	==
*-	*-	*-	*-
!!!RWG1: This file contains only pitch and duration data.
!!!RWG2: Transposing instruments are not transposed.
!!!RWG3: Spines may have incompatible meters.
!!!RWG4: Durations of rests and tied notes may be interpreted.
!!!RWG: Key is interpreted using the Humdrum key tool.
!!!GTL: 6 Quators ("Tost I + II")
!!!AFT: stage1
!!!END: 1997/04/15
!!!KEY: 1672527947
!!!EMD: Converted from MuseData to Humdrum Dec 16, 2000, by Andreas Kornstaedt using muse2kern.
!!!EMD: Manual editing by Craig Sapp, Nov 2001
